Assets/Scenes/TestingLut.3DL
#Created by: Adobe Photoshop Export Color Lookup Plugin
#Copyright: (C) Copyright 2022 Lwy
#Description: TestingLUT
0 33 66 99 132 165 198 231 264 297 330 363 396 429 462 495 528 561 594 627 660 693 726 759 792 825 858 891 924 957 990 1023
0 0 0
0 0 198
0 0 400
0 0 594
0 0 749
0 0 894
0 0 1035
0 0 1174
0 0 1314
0 0 1455
0 0 1598
0 0 1744
0 0 1890
0 0 2036
0 0 2179
0 0 2320
0 0 2457
0 0 2588
120 318 484
120 318 484
120 318 484
120 318 484
120 318 484
120 318 484
120 318 484
120 318 484
120 318 484
120 318 484
120 318 484
120 318 484
120 318 484
119 303 477
119 303 494
119 303 494
118 289 488
125 306 499
125 306 499
131 309 504
152 332 523
172 340 553
218 372 601
308 446 664
369 480 698
391 499 713
413 507 733
436 514 733
459 522 744
483 530 755
532 535 782
531 524 778
531 524 769
532 535 773
519 531 767
507 527 753
508 538 757
520 542 771
533 546 777
533 546 777
546 550 782
546 550 782
546 550 782
560 555 788
573 559 794
573 559 794
587 563 799
587 563 799
600 557 802
601 567 805
629 576 817
719 603 852
719 603 859
719 603 852
782 612 872
812 603 878
812 603 878
829 608 892
898 628 916
898 628 916
809 576 863
694 508 817
694 508 817
694 508 817
694 508 817
694 508 817
710 513 823
710 513 815
694 508 801
679 502 795
663 489 778
633 471 756
549 439 716
473 416 681
437 401 662
437 401 671
425 396 665
392 381 636
349 352 607
289 313 551
244 277 498
244 277 498
262 299 517
262 299 517
271 303 537
271 303 537
280 308 544
280 308 544
280 308 544
280 308 544
280 308 544
280 308 544
289 313 564
289 313 564
299 317 570
299 328 574
299 328 574
290 323 568
299 328 574
299 328 574
309 333 581
318 338 587
318 338 587
318 338 587
318 338 587
318 338 587
318 338 587
318 338 587
309 333 581
309 333 581
318 338 587
309 333 581
271 303 550
220 276 497
203 267 483
211 271 490
228 280 504
236 285 510
244 289 517
253 294 523
289 313 564
318 327 584
318 338 587
318 338 587
309 333 581
299 328 574
290 323 568
271 303 550
262 299 544
262 299 530
271 303 550
280 308 557
280 308 557
211 258 500
165 232 445
157 212 433
156 196 410
186 215 421
297 294 536
379 347 609
459 393 669
535 425 715
576 449 737
576 449 737
591 462 754
605 468 761
605 468 761
605 468 761
591 462 754
591 462 754
591 462 754
577 457 748
591 462 754
606 476 763
620 481 777
620 481 777
620 481 769
620 481 769
606 476 771
649 492 790
664 497 789
619 473 759
591 462 738
472 407 678
448 397 665
473 416 689
498 435 713
498 435 713
498 435 713
473 425 701
449 415 689
438 410 683
426 406 678
426 406 678
425 396 674
414 391 668
414 391 658
392 381 646
392 381 646
402 376 649
391 371 643
370 371 655
320 359 642
426 406 687
473 425 720
473 425 711
473 416 708
473 416 708
473 416 708
473 416 699
461 411 693
448 397 674
448 397 665
471 398 666
496 409 679
496 409 671
484 404 664
472 407 669
460 402 663
473 416 681
473 416 681
473 416 681
473 416 681
473 416 689
485 421 696
486 430 699
498 435 713
511 440 720
511 440 728
524 454 737
524 454 746
525 463 759
538 468 764
538 468 774
553 482 782
554 492 795
568 506 804
569 516 816
569 516 816
569 516 816
569 516 826
583 521 831
584 531 834
584 531 844
584 531 844
598 536 849
598 536 849
598 536 859
599 546 863
599 546 863
599 546 873
599 546 873
599 546 873
599 546 873
599 546 873
599 546 873
599 546 873
586 552 871
600 557 886
601 567 900
601 567 900
601 567 900
601 567 900
602 579 914
602 579 914
602 579 914
602 579 925
602 579 925
588 574 920
562 578 925
549 573 921
537 581 920
537 581 920
537 581 920
537 581 931
537 581 931
537 581 931
537 581 931
537 581 931
538 594 946
538 594 958
526 602 957
514 599 953
514 599 942
501 595 937
489 591 946
465 584 938
453 581 946
408 567 932
365 541 928
324 515 898
260 481 860
243 475 854
235 472 838
258 467 856
258 467 856
266 456 856
250 464 854
242 461 851
216 439 825
181 440 816
167 436 826
153 416 803
178 411 808
179 426 812
192 417 828
194 431 832
188 443 833
188 443 833
189 457 837
167 436 826
148 429 834
159 418 835
156 389 813
158 404 802
167 436 826
181 440 845
181 440 845
174 438 843
174 438 843
148 429 834
135 425 830
133 410 842
146 414 816
159 418 820
154 432 822
158 404 787
156 389 783
155 374 764
136 367 757
35 189 469
50 244 513
84 200 418
92 233 472
98 252 501
98 252 519
93 249 533
99 266 560
100 281 582
120 318 665
129 365 740
125 377 757
133 410 797
135 425 816
137 440 834
137 440 834
137 440 834
143 442 851
143 442 851
129 423 844
112 418 839
105 400 833
101 414 836
55 307 691
74 330 733
100 398 817
100 398 832
83 378 793
50 290 686
71 344 751
85 394 812
122 466 927
108 477 942
110 492 960
110 492 960
106 461 969
96 458 951
100 490 973
107 507 993
110 492 991
112 508 1009
117 510 1011
112 508 1009
92 457 950
74 421 909
65 403 888
65 403 888
61 402 887
61 402 887
61 402 871
59 386 852
51 383 850
46 366 830
85 440 945
94 473 969
94 473 969
83 454 948
57 401 918
46 398 884
53 400 885
72 436 927
98 474 985
100 490 988
95 489 987
94 473 984
91 487 1002
91 487 1017
91 487 1017
91 487 1017
97 504 1006
97 504 1021
97 504 1037
97 504 1037
97 504 1037
97 504 1052
99 520 1071
99 520 1055
101 536 1059
106 537 1075
108 554 1079
106 537 1106
113 555 1125
113 555 1125
108 554 1109
106 568 1127
106 568 1127
108 584 1145
113 586 1146
113 586 1146
104 583 1145
120 603 1166
120 603 1166
120 603 1151
106 568 1157
115 633 1248
118 649 1282
118 649 1282
109 647 1280
112 664 1284
109 647 1280
113 648 1281
113 648 1281
98 630 1276
102 630 1276
109 647 1280
116 665 1300
123 682 1320
127 683 1336
121 698 1353
120 714 1372
111 728 1389
111 728 1405
115 729 1405
115 729 1421
89 692 1364
86 691 1348
86 691 1348
83 690 1348
80 690 1363
80 690 1363
80 690 1363
77 689 1362
83 690 1363
83 690 1363
83 690 1363
80 690 1363
80 690 1379
77 689 1378
77 689 1378
74 689 1378
74 689 1378
70 688 1393
77 706 1397
1060 1714 1975
3227 3360 3160
3253 3362 3156
3253 3362 3156
3253 3362 3156
3249 3352 3152
3249 3352 3138
3249 3352 3138
3249 3352 3138
3249 3352 3138
3262 3353 3140
3262 3353 3140
3262 3353 3140
3262 3353 3125
3262 3353 3125
3275 3354 3127
3275 3354 3127
3275 3354 3127
3275 3354 3127
3275 3354 3127
3275 3354 3127
3275 3354 3127
3275 3354 3127
3288 3356 3129
3288 3356 3129
3288 3356 3129
3288 3356 3129
3288 3356 3129
3288 3356 3129
3300 3357 3131
3300 3357 3131
3300 3357 3131
3300 3357 3123
3300 3357 3131
3300 3357 3123
3297 3346 3119
3297 3346 3119
3297 3346 3119
3297 3346 3119
3297 3346 3119
3297 3346 3119
3297 3346 3119
3297 3346 3119
3297 3346 3119
3310 3348 3121
3310 3348 3121
3310 3348 3121
3310 3348 3121
3310 3348 3121
3310 3348 3121
3310 3348 3121
3310 3348 3121
3310 3348 3121
3310 3348 3121
3310 3348 3121
3310 3348 3121
3297 3346 3119
3297 3346 3119
3297 3346 3119
3297 3346 3119
3297 3346 3119
3297 3346 3119
3297 3346 3119
3297 3346 3119
3297 3346 3119
3297 3346 3119
3300 3357 3131
3300 3357 3131
3300 3357 3131
3300 3357 3131
3300 3357 3131
3288 3356 3129
3288 3356 3129
3288 3356 3129
3288 3356 3129
3288 3356 3129
3288 3356 3129
3275 3354 3127
3275 3354 3127
3275 3354 3127
3275 3354 3127
3275 3354 3127
3275 3354 3127
3275 3354 3127
3275 3354 3127
3262 3353 3125
3262 3353 3125
3262 3353 3140
3262 3353 3140
3262 3353 3140
3249 3352 3138
3249 3352 3138
3249 3352 3138
3249 3352 3138
3249 3352 3152
3253 3362 3156
3253 3362 3156
3253 3362 3156
3227 3360 3160
1226 2342 2958
345 1865 2908
475 1678 2694
662 1283 2176
657 1193 2068
511 1564 2553
395 1648 2686
390 1648 2686
370 1787 2824
345 1865 2908
345 1865 2908
345 1865 2908
345 1865 2908
437 1694 2721
358 1846 2881
401 1689 2719
386 1728 2764
345 1865 2908
345 1865 2908
345 1865 2908
345 1865 2908
345 1865 2908
345 1865 2908
345 1865 2908
345 1865 2908
345 1865 2908
345 1865 2908
345 1865 2908
345 1865 2908
345 1865 2908
345 1865 2908
345 1865 2908
345 1865 2908
345 1865 2908
345 1865 2908
345 1865 2908
345 1865 2908
345 1865 2908
345 1865 2908
345 1865 2908
345 1865 2908
345 1865 2908
345 1865 2908
345 1865 2908
345 1865 2908
345 1865 2908
345 1865 2908
345 1865 2908
345 1865 2908
345 1865 2908
345 1865 2908
345 1865 2908
345 1865 2908
345 1865 2908
345 1865 2908
345 1865 2908
345 1865 2908
345 1865 2908
345 1865 2908
345 1865 2908
345 1865 2908
345 1865 2908
345 1865 2908
345 1865 2908
345 1865 2908
345 1865 2908
345 1865 2908
345 1865 2908
345 1865 2908
345 1865 2908
345 1865 2908
345 1865 2908
345 1865 2908
345 1865 2908
345 1865 2908
345 1865 2908
345 1865 2908
345 1865 2908
345 1865 2908
345 1865 2908
345 1865 2908
345 1865 2908
345 1865 2908
345 1865 2908
345 1865 2908
345 1865 2908
345 1865 2908
345 1865 2908
345 1865 2908
345 1865 2908
345 1865 2908
345 1865 2908
345 1865 2908
345 1865 2908
345 1865 2908
345 1865 2908
231 1330 2259
328 1422 2403
435 1633 2658
406 1710 2749
345 1865 2908
345 1865 2908
358 1846 2881
444 1695 2694
345 1865 2908
345 1865 2908
345 1865 2908
345 1865 2908
345 1865 2908
345 1865 2908
339 1844 2881
327 1802 2850
321 1781 2821
321 1781 2821
314 1760 2805
279 1634 2692
252 1530 2592
241 1489 2557
186 1266 2294
113 946 1734
172 1208 2205
172 1208 2205
172 1208 2205
172 1208 2205
172 1208 2205
172 1208 2189
172 1208 2189
168 1188 2186
168 1188 2186
168 1188 2186
168 1188 2186
159 1149 2131
129 1019 1945
129 1019 1928
125 1000 1925
125 1000 1925
125 1000 1925
129 1019 1912
125 1000 1892
125 1000 1875
125 1000 1859
125 1000 1859
121 982 1856
121 982 1856
117 964 1852
117 964 1852
117 964 1852
117 964 1852
117 964 1836
117 964 1820
113 946 1816
110 928 1813
110 928 1796
110 928 1796
117 964 1820
113 946 1816
113 946 1816
113 946 1800
110 928 1796
110 928 1780
110 928 1763
106 911 1727
106 911 1727
102 893 1691
98 875 1687
95 858 1651
91 840 1615
91 840 1615
87 823 1612
87 823 1612
84 806 1608
84 806 1592
84 806 1592
84 806 1592
84 806 1592
84 806 1592
104 876 1639
101 859 1636
103 859 1603
120 845 1570
105 826 1565
99 808 1545
102 792 1543
74 754 1469
70 737 1466
64 703 1443
64 703 1443
83 739 1467
101 759 1473
86 740 1452
92 741 1452
107 760 1458
114 761 1458
104 743 1454
104 743 1422
98 726 1419
112 712 1355
116 713 1355
112 712 1355
116 713 1355
120 714 1356
120 714 1356
128 715 1357
99 677 1300
104 662 1282
105 647 1249
98 630 1229
118 649 1235
104 583 1114
106 568 1096
110 569 1097
101 567 1095
110 569 1082
115 570 1083
120 571 1084
120 571 1084
120 571 1084
118 556 1081
113 555 1064
104 552 1032
97 535 1012
97 535 1012
95 519 1009
95 519 994
99 520 995
99 520 995
93 503 1005
93 503 1005
93 503 1005
93 503 1005
93 503 1005
93 503 1005
93 503 1005
93 503 990
93 503 990
97 504 991
102 505 977
102 505 977
97 504 976
97 504 976
102 505 977
97 504 976
93 503 975
97 504 976
97 504 976
97 504 976
97 504 976
97 504 976
97 504 976
95 489 972
91 487 956
86 486 940
84 470 936
80 469 935
78 453 932
78 453 932
80 469 935
84 470 936
83 454 932
78 453 916
74 452 915
78 453 916
76 437 912
78 453 916
78 453 916
81 438 898
76 437 897
76 437 897
76 437 897
76 437 897
74 421 878
74 421 878
70 420 861
66 419 860
69 404 857
69 404 857
73 406 859
73 406 859
74 421 862
79 423 863
83 424 864
83 424 864
88 425 866
88 425 866
93 427 867
93 427 867
93 427 867
93 427 867
93 427 867
91 411 863
91 411 863
91 411 848
98 428 853
105 445 858
98 428 838
91 411 817
82 408 799
85 394 781
79 376 760
72 360 739
79 376 760
83 378 762
83 378 762
83 378 746
77 361 740
77 361 740
77 361 725
76 345 705
76 345 705
76 345 705
76 345 705
76 345 705
76 345 705
76 345 705
76 345 705
76 345 705
76 345 705
74 330 685
74 330 685
74 330 685
74 330 669
74 330 669
73 314 649
73 314 649
73 314 649
73 314 649
73 314 649
73 314 649
73 314 649
73 314 632
73 314 632
73 314 632
72 298 628
66 281 604
66 281 604
66 281 604
66 281 604
66 281 587
66 281 587
64 265 582
